X:1
T:Title
%%score ( 1 2 ) { 3 | 4 }
L:1/8
Q:1/4=110
M:4/4
K:Ab
V:1 treble nm="Drawbar Organ, Soprano"
V:2 treble 
V:3 bass nm="Church Organ, On Zion�s Glorious Summit"
V:4 bass 
V:1
 E2 [EA]2 [EA]2 [EA]2 | [EA]2 [EG]2- [EG][EB] [EA]2 | [EB]2 [Ec]2 [Ec]2 [Ec]2 | %3
w: By~Robert~Skene * * *|||
 [Ec]2 [EB]2- [EB][Ed] [Ec]2 | [Ge]2 [Ae]2 [Ge]2 [Ae]2 | [Ge]2 [Ae]4 [Bd]2 | [Ac]2 [Ac]4 [GB]2 | %7
w: ||||
 z4 .d2 z2 | .d2 z2 z2 c2 | z8 | [EA]2 [FA]2- [FA][FA] [FA]2 | z4 z2 c2 | z8 | %13
w: ||||||
 E2 [EA]2 [EA]2 [EA]2 | [EA]2 [EG]2- [EG][EB] [EA]2 | [EB]2 [Ec]2 [Ec]2 [Ec]2 | %16
w: |||
 [Ec]2 [EB]2- [EB][Ed] [Ec]2 | [Ge]2 [Ae]2 [Ge]2 [Ae]2 | [Ge]2 [Ae]4 [Bd]2 | [Ac]2 [Ac]4 [GB]2 | %20
w: ||||
 z4 .d2 z2 | .d2 z2 z2 c2 | z8 | [EA]2 [FA]2- [FA][FA] [FA]2 | z4 z2 c2 | z8 | %26
w: ||||||
 E2 [EA]2 [EA]2 [EA]2 | [EA]2 [EG]2- [EG][EB] [EA]2 | [EB]2 [Ec]2 [Ec]2 [Ec]2 | %29
w: |||
 [Ec]2 [EB]2- [EB][Ed] [Ec]2 | [Ge]2 [Ae]2 [Ge]2 [Ae]2 | [Ge]2 [Ae]4 [Bd]2 | [Ac]2 [Ac]4 [GB]2 | %33
w: ||||
 z4 .d2 z2 | .d2 z2 z2 c2 | z8 | [EA]2 [FA]2- [FA][FA] [FA]2 | z4 z2 c2 | z8 | [Ac]4 [EA]2 z2 | %40
w: |||||||
 [Ge]4 [EG]2 z2 | [CA]4 [DF]4 | [CE]6 z2 | [EA]2 [Ac]2 [Ad]2 [Af]2 | [Ae]2 [EG]2 [EA]2 z2 | %45
w: |||||
 [CE]2 [A,C]2 [FA]3 [EG] | [DF]2 [DF]2 [CE]4 | [EA]2 [Ac]2 [GB]2 [FB]2 | [GB]6 z2 | %49
w: ||||
 [Ac]4 [EA]2 z2 | [Ge]4 [EG]2 z2 | [CA]4 [DF]4 | [CE]6 z2 | [EA]2 [Ac]2 [Ad]2 [Af]2 | %54
w: |||||
 [Ae]2 [EG]2 [EA]2 z2 | [FA]4 [EA]2 z2 | [FA]4 [EA]2 z2 | [FA]8 | [EA]8 |] %59
w: |||||
V:2
 x8 | x8 | x8 | x8 | x8 | x8 | x8 | [Gd]2 [Ac]2 A-[Ae] [Af]2 | F-[FB] [EA]4 E2- | [EB]2 [EA]6 | %10
 x8 | [FA]2 [EA]4 E2- | [EB]2 [EA]6 | x8 | x8 | x8 | x8 | x8 | x8 | x8 | [Gd]2 [Ac]2 A-[Ae] [Af]2 | %21
 F-[FB] [EA]4 E2- | [EB]2 [EA]6 | x8 | [FA]2 [EA]4 E2- | [EB]2 [EA]6 | x8 | x8 | x8 | x8 | x8 | %31
 x8 | x8 | [Gd]2 [Ac]2 A-[Ae] [Af]2 | F-[FB] [EA]4 E2- | [EB]2 [EA]6 | x8 | [FA]2 [EA]4 E2- | %38
 [EB]2 [EA]6 | x8 | x8 | x8 | x8 | x8 | x8 | x8 | x8 | x8 | x8 | x8 | x8 | x8 | x8 | x8 | x8 | x8 | %56
 x8 | x8 | x8 |] %59
V:3
 E,2 C2 C2 C2 | C2 B,2- B,D C2 | G,2 A,2 A,2 A,2 | A,2 G,2- G,B, A,2 | B,2[K:treble] C2 B,2 C2 | %5
 B,2 C4 E2- | E2 E6 | B,2 A,2 B,C D2 | D2 C4 E2 | D2 C6 | C2 D2- DD D2 | D2 C4 E2 | D2 C6 | %13
 E,2 C2 C2 C2 | C2 B,2- B,D C2 | G,2 A,2 A,2 A,2 | A,2 G,2- G,B, A,2 | B,2[K:treble] C2 B,2 C2 | %18
 B,2 C4 E2- | E2 E6 | B,2 A,2 B,C D2 | D2 C4 E2 | D2 C6 | C2 D2- DD D2 | D2 C4 E2 | D2 C6 | %26
 E,2 C2 C2 C2 | C2 B,2- B,D C2 | G,2 A,2 A,2 A,2 | A,2 G,2- G,B, A,2 | B,2[K:treble] C2 B,2 C2 | %31
 B,2 C4 E2- | E2 E6 | B,2 A,2 B,C D2 | D2 C4 E2 | D2 C6 | C2 D2- DD D2 | D2 C4 E2 | D2 C6 | %39
 E4 C2 z2 | B,4 B,2 z2 | A,4 A,4 | A,6 z2 | C2 E2 D2 D2 | C2 B,2 C2 z2 | z8 | z8 | A,2 E2 E2 =D2 | %48
 E6 z2 | E4 C2 z2 | B,4 B,2 z2 | A,4 A,4 | A,6 z2 | C2 E2 D2 D2 | C2 B,2 C2 z2 | D4 C2 z2 | %56
 D4 C2 z2 | D8 | C8 |] %59
V:4
 z2 A,2 E,2 C,2 | A,,2 E,2- E,E, A,,2 | E,2 z2 E,2 C,2 | A,,2 E,2- E,E, z2 | E,2 A,2 E,2 A,2 | %5
 E,2 A,4 G,2 | A,2 E,6 | E,2 z2 A,2 D,2 | D,2 E,4 E,2- | E,2 A,6 | C,2 D,2- D,D, D,2 | %11
 D,2 E,4 E,2- | E,2 A,,6 | z2 A,2 E,2 C,2 | A,,2 E,2- E,E, A,,2 | E,2 z2 E,2 C,2 | %16
 A,,2 E,2- E,E, z2 | E,2 A,2 E,2 A,2 | E,2 A,4 G,2 | A,2 E,6 | E,2 z2 A,2 D,2 | D,2 E,4 E,2- | %22
 E,2 A,6 | C,2 D,2- D,D, D,2 | D,2 E,4 E,2- | E,2 A,,6 | z2 A,2 E,2 C,2 | A,,2 E,2- E,E, A,,2 | %28
 E,2 z2 E,2 C,2 | A,,2 E,2- E,E, z2 | E,2 A,2 E,2 A,2 | E,2 A,4 G,2 | A,2 E,6 | E,2 z2 A,2 D,2 | %34
 D,2 E,4 E,2- | E,2 A,6 | C,2 D,2- D,D, D,2 | D,2 E,4 E,2- | E,2 A,,6 | A,4 A,2 z2 | E,4 E,2 z2 | %41
 F,4 D,4 | A,,6 z2 | A,2 _G,2 F,2 D,2 | E,2 E,2 A,,2 z2 | z8 | z8 | C,2 A,,2 B,,2 B,,2 | E,6 z2 | %49
 A,4 A,2 z2 | E,4 E,2 z2 | F,4 D,4 | A,,6 z2 | A,2 _G,2 F,2 D,2 | E,2 E,2 A,,2 z2 | D,4 A,,2 z2 | %56
 D,4 A,,2 z2 | D,8 | A,,8 |] %59

